X:1
T:German Dance No. 1
T:German Dance No. 1
T:D. 420.1
T:Franz Schubert
T:Public Domain (PianoXML typeset) | 12 German Dances D.420 (1817)
C:Franz Schubert
Z:Public Domain (PianoXML typeset) | 12 German Dances D.420 (1817)
%%score { ( 1 4 ) | ( 2 3 ) }
L:1/8
Q:3/4=58
M:3/4
K:D
V:1 treble nm="Piano" snm="Pno."
V:4 treble 
V:2 bass 
V:3 bass 
V:1
!p!"^Allegro moderato" .[Af].[Af] | .[Af]2 .[Af]2 .[Af]2 | ([Ge]2 [Af]2) .[Ge]2 | %3
 ([Fd]4 [FA]).[FA] | .[FA]2 .[Ad]2 .[df]2 | (a2 g2) .e2 | (a2 g2) .e2 | (d2{/e} dcdf | %8
 [Ace]4)!p! .[Af].[Af] | .[Af]2 .[Af]2 .[Af]2 | ([Ge]2 [Af]2) .[Ge]2 | ([Fd]4 [FA]).[FA] | %12
 .[FA]2 .[Ad]2 .[df]2 | (!>!a2 g2) .e2 | (!>!a2 g2) .e2 |{/e} (dcdf ec | d4) :: .[Ff].[Ff] | %18
 .[Ff]2 .[Ff]2 .[Ff]2 | .[Ff]2 .[^G^g]2 .[^A^a]2 | .[Bb]2 .[cc']2 .[dd']2 | %21
 !>![Ff]4!p! .[Af].[Af] | .[Af]2!<(! .[Af]2 .[Af]2!<)! | (a2 g2) .e2 | (d2!>(! f2) .e2!>)! | %25
 !>!d4 :| %26
V:2
 z2 |!ped! x2 [A,D]2!ped-up! [A,D]2 |!ped! x2 [A,C]2!ped-up! [A,C]2 | %3
!ped! x2 [A,D]2!ped-up! [A,D]2 |!ped! x2 [A,D]2!ped-up! [A,D]2 | %5
!ped! [A,,A,]2 [A,E]2!ped-up! [A,E]2 |!ped! [A,,A,]2 [A,E]2!ped-up! [A,E]2 | %7
!ped! [D,F,D]2 [D,F,D]2!ped-up! [D,F,D]2 |!ped! [A,E]4!ped-up! z2 |!ped! x2 [A,D]2!ped-up! [A,D]2 | %10
!ped! x2 [A,C]2!ped-up! [A,C]2 |!ped! x2 [A,D]2!ped-up! [A,D]2 |!ped! x2 [A,D]2!ped-up! [A,D]2 | %13
!ped! [A,,A,]2 [A,E]2!ped-up! [A,E]2 |!ped! [A,,A,]2 [A,E]2!ped-up! [A,E]2 | %15
!ped! [F,D]2 [F,D]2!ped-up!!ped! [A,E]2 | [D,F,D]4!ped-up! ::!ff! .[F,,F,].[F,,F,] | %18
 .[F,,F,]2 .[F,,F,]2 .[F,,F,]2 | .[F,,F,]2 .[^G,,^G,]2 .[^A,,^A,]2 | .[B,,B,]2 .[C,C]2 .[D,D]2 | %21
 [F,,F,]4 z2 |!ped! x2 [A,D]2!ped-up! [A,D]2 |!ped! x2 [A,C]2!ped-up! [A,C]2 | %24
!ped! x2 [A,D]2!ped-up! [A,C]2 |!ped! !>![A,D]4!ped-up! :| %26
V:3
 x2 | D,6 | D,6 | D,6 | D,6 | x6 | x6 | x6 | x6 | D,6 | D,6 | D,6 | D,6 | x6 | x6 | x6 | x4 :: x2 | %18
 x6 | x6 | x6 | x6 | D,6 | D,6 | D,6 | x4 :| %26
V:4
 x2 | x6 | x6 | x6 | x6 | [Ac]4 [Ac]2 | [Ac]4 [Ac]2 | A2 A2 A2 | x6 | x6 | x6 | x6 | x6 | %13
 [Ac]4 [Ac]2 | [Ac]4 [Ac]2 | A2 A2 A2 | x4 :: x2 | x6 | x6 | x6 | x6 | x6 | =G4 G2 | F2 A2 G2 | %25
 x4 :| %26

